X:153
T:Miss Nanny Frowns. JJo8.153
%%VWML:JohnsonVol8-2184-p77-0
F:http://www.vwml.org/record/JohnsonVol8/2184/p77
Z:Transcribed by Simon Furey and Lewis Jones
Z:vmp.Simon Wilson 2013 www.village-music-project.org.uk
Z:Dance added by John Chambers 2017
M:6/8
L:1/8
%Q:3/8=120
K:G
   G |\
GAGG2e | dBG AFD |\
GAGG2e | dBGA2 :|\
|: A |\
GABd2g | dBG AFD |
GABd2g | dBGA2g |\
bag agf | egc BAG |\
ABG FED | EAFG2 :|
W: First and 2d Cu. foot Partners .| then foot
W:Sideways ..| Cross over 2 Cu. .| Lead up
W:to the Top and cast off ..| the Man whole
W:figure at Bottom and Wo. the same at top
W:at the same time ..| Hands across at Bottom
W:.| Right and Left at Top ..|
W:
T:Chalford Bottom. JJo8.154
B:J.Johnson Choice Collection Vol 8 1758
Z:vmp.Simon Wilson 2013 www.village-music-project.org.uk
Z:Dance added by John Chambers 2017
M:2/4
L:1/8
%Q:1/2=80
K:D
|:\
d2((3fed) | eAA2 | d2((3fed) | eaa2 |\
d2((3fed) | eAA2 | ((3Bcd) ((3edc) | d2D2 :|
|:\
((3fga) ((3fga) | gbb2 | ((3efg) ((3efg) | faa2 |\
((3Bcd) ed | Tc>BA2 | ((3efg) fd | Acd2 :|
W: Cast off two Cu. .| and up again ..|
W:Cross over two Cu. .| Lead to the Top
W:and cast off ..| foot Corners and turn ..|
W:and lead out Sides ..|
W:
